X:1
T:Entre du fol
T:Entre du fol
T:(Basse dansse 7)
T:Tielman Susato
C:Tielman Susato
%%score 1 2 3 4
L:1/8
M:2/2
K:F
V:1 treble 
V:2 treble 
V:3 treble 
V:4 bass 
V:1
 GFGA G2 G2 | FEFG F2 F2 | G2 AB cBAG | A4 z4 | AGAB ABcd | c2 B2 A2 G2 | FGAG FEG^F | G4 z4 :| %8
 AGAB A2 A2 | A4 z2 A2 | B2 GA BcdB | c4 A2 A2 | BAGA BcdB | c4 A2 A2 | B2 AG FGAB | c4 A2 A2 | %16
 B3 A GABG | A3 G FGAF | G3 F EFGE | F4 D4 | DCDE FGAB | c3 B A2 G2 | FGAG ^FEGF | G4 z4 | %24
 B3 A GABG | A3 G FGAF | G3 F EFGE | F4 D4 | DCDE FGAB | c3 B A2 G2 | FGAG ^FEGF | G8 |] %32
V:2
 D4 D2 E2 | D4 D2 D2 | B,2 F4 E2 | F4 z4 | F4 F2 E2 | ECDE FF, G,2 | A,4 D4 | B,4 z4 :| F4 F2 E2 | %9
 F4 z2 F2 | G6 F2 | F6 F2 | G6 G2 | E2 F2 F2 F2 | G2 G,2 A,2 F,2 | G,2 F,F F2 F2 | G3 F E2 D2 | %17
 F3 E D2 C2 | _E2 B,2 C3 B, | A,4 B,4 | G,2 G2 F4- | F2 C2 F2 E2 | D2 C2 D4 | D4 z4 | G3 F E2 D2 | %25
 F3 E D2 C2 | _E2 B,2 C3 B, | A,4 B,4 | G,2 G2 F4- | F2 C2 F2 E2 | D2 C2 D4 | D8 |] %32
V:3
 B4 B2 c2 | A4 A2 B2 | G2 F2 G2 c2 | A4 z4 | c4 c2 c2 | A2 B2 c2 c2 | d2 cB AG A2 | G4 z4 :| %8
 d4 d2 c2 | d4 z2 d2 | B3 c d4 | c2 A2 c2 d2 | B3 c d4 | c2 A2 c2 d2 | B3 c d4 | e2 c2 c2 d2 | %16
 B4 c2 B2 | A2 A2 B2 A2 | G2 G2 A2 G2- | G2 F2 G4 | B4 A2 A2 | AGAB c3 B | A2 G2 A4 | B4 z4 | %24
 B4 c2 B2 | A2 A2 B2 A2 | G2 G2 A2 G2- | GF F2 G4 | B4 A2 A2 | AGAB c3 B | A2 G2 A4 | G8 |] %32
V:4
 G,4 G,2 C,2 | D,4 D,2 B,,2 | _E,2 D,2 C,4 | F,4 z4 | F,4 F,2 A,2- | A,2 G,2 F,2 E,2 | D,4 D,4 | %7
 G,,4 z4 :| D,4 F,G, A,2 | D,4 z2 D,2 | G,6 B,2 | F,6 D,2 | G,6 G,2 | C,2 F,2 F,2 D,2 | %14
 G,2 F,E, D,4 | C,2 F,2 F,2 D,2 | G,4 C,2 G,2 | F,4 B,,2 F,2 | _E,4 C,4 | D,4 G,,4 | %20
 G,3 F, D,2 F,2 | F,6 C,2 | D,2 _E,2 D,4 | G,,4 z4 | G,4 C,2 G,2 | F,4 B,,2 F,2 | _E,4 C,4 | %27
 D,4 G,,4 | G,4 D,2 F,2 | F,6 C,2 | D,2 _E,2 D,4 | G,,8 |] %32

